svg/fluentui-system-icons/ic_fluent_chevron_down_up_16_regular.svg

<svg width="16" height="16" viewBox="0 0 16 16" fill="none" xmlns="http://www.w3.org/2000/svg">
<path d="M11.8536 3.35355L8.35355 6.85355C8.15829 7.04882 7.84171 7.04882 7.64645 6.85355L4.14645 3.35355C3.95118 3.15829 3.95118 2.84171 4.14645 2.64645C4.34171 2.45118 4.65829 2.45118 4.85355 2.64645L8 5.79289L11.1464 2.64645C11.3417 2.45118 11.6583 2.45118 11.8536 2.64645C12.0488 2.84171 12.0488 3.15829 11.8536 3.35355ZM11.8536 12.6464L8.35355 9.14645C8.15829 8.95118 7.84171 8.95118 7.64645 9.14645L4.14645 12.6464C3.95118 12.8417 3.95118 13.1583 4.14645 13.3536C4.34171 13.5488 4.65829 13.5488 4.85355 13.3536L8 10.2071L11.1464 13.3536C11.3417 13.5488 11.6583 13.5488 11.8536 13.3536C12.0488 13.1583 12.0488 12.8417 11.8536 12.6464Z" fill="#212121"/>
</svg>

<svg xmlns="http://www.w3.org/2000/svg" width="16" height="16"><path d="m11.854 3.354-3.5 3.5a.5.5 0 0 1-.708 0l-3.5-3.5a.5.5 0 1 1 .708-.708L8 5.793l3.146-3.147a.5.5 0 0 1 .708.708Zm0 9.292-3.5-3.5a.5.5 0 0 0-.708 0l-3.5 3.5a.5.5 0 0 0 .708.708L8 10.207l3.146 3.147a.5.5 0 0 0 .708-.708Z"/></svg>
